COLOR/action 16/16/package-installed-updated.svg

<svg height="16" width="16" xmlns="http://www.w3.org/2000/svg" xmlns:xlink="http://www.w3.org/1999/xlink"><filter id="a" color-interpolation-filters="sRGB" height="1.025687" width="1.022521" x="-.011261" y="-.012843"><feGaussianBlur stdDeviation=".056106651"/></filter><path d="m5.3261719 0c-1.67759.0195-2.9064963-.04015813-3.9101563.51367188-.50182995.27685999-.89762746.74519812-1.11718748 1.33007812-.21956.58488-.29882812 1.27944-.29882812 2.15625v8c0 .87681.07924813 1.57137.29882812 2.15625.21956002.58488.61535753 1.053218 1.11718748 1.330078 1.00366.55376 2.2325663.494242 3.9101563.513672h.00391 5.3398439.0039c1.67759-.0195 2.904543.04016 3.908203-.513672.50183-.27686.897628-.745198 1.117188-1.330078.2199842-.58488.3007832-1.27944.3007832-2.15625v-8c0-.87681-.079248-1.57136-.298828-2.15625-.21955-.58488-.615358-1.05319813-1.117188-1.33007812-1.00366-.55379-2.232556-.49431188-3.910156-.51367188h-.0039-2.0039064-3.3359375z" fill="#1c8b2d"/><path d="m5.3261719 0c-1.67759.0195-2.9064963-.04015813-3.9101563.51367188-.50182992.27685999-.89762745.74519812-1.11718748 1.33007812-.21956.58488-.29882812 1.27944-.29882812 2.15625v.5c0-.87681.07926812-1.57137.29882812-2.15625.21956003-.58488.61535756-1.0532181 1.11718748-1.3300781 1.00366-.55383005 2.2325663-.4941719 3.9101563-.5136719h.0039062 3.3359375 2.0039064.003906c1.6776.01936 2.906496-.04011815 3.910156.5136719.50183.27688.897638.7451981 1.117188 1.3300781.21958.58489.298828 1.27944.298828 2.15625v-.5c0-.87681-.079248-1.57136-.298828-2.15625-.21955-.58488-.615358-1.05319814-1.117188-1.33007812-1.00366-.55379-2.232556-.49431188-3.910156-.51367188h-.003906-2.0039064-3.3359375z" fill="#fff" opacity=".3"/><path d="m10.673828 16c1.67759-.0195 2.906496.04016 3.910156-.513672.50183-.27686.897628-.745198 1.117188-1.330078s.298828-1.27944.298828-2.15625v-.5c0 .87681-.07927 1.57137-.298828 2.15625-.21956.58488-.615358 1.053218-1.117188 1.330078-1.00366.55383-2.232566.494172-3.910156.513672h-.003906-3.3359376-2.0039064-.003906c-1.6776-.01936-2.906496.040118-3.910156-.513672-.50183-.27688-.897638-.745198-1.117188-1.330078-.21958-.58489-.298828-1.27944-.298828-2.15625v.5c0 .87681.079248 1.57136.298828 2.15625.21955.58488.615358 1.053198 1.117188 1.330078 1.00366.55379 2.232556.494312 3.910156.513672h.00391 2.0039064 3.3359376z" opacity=".2"/><g fill-opacity=".098039" filter="url(#a)" transform="translate(-24.610184 -4.510652)"><path d="m37.742386 7.3819518c-.09621-.018085-.196119-.019116-.298828.00195-.21888.0473-.42059.17053-.5625.34375l-6.28125 7.1875002-2.25-2.25c-.188165-.18819-.453462-.283207-.71875-.283203-.265289.000004-.53057.09503-.71875.283203-.188175.18818-.281247.453461-.28125.71875-.000004.265289.09306.530585.28125.71875l3 3 .78125.75.6875-.8125 7-8.0000002c.248246-.2702537.256685-.6532066.11914-.9843718s-.421074-.6105427-.757812-.6738282z" fill-opacity=".098039"/></g><path d="m37.742386 7.3819518c-.09621-.018085-.196119-.019116-.298828.00195-.21888.0473-.42059.17053-.5625.34375l-6.28125 7.1875002-2.25-2.25c-.188165-.18819-.453462-.283207-.71875-.283203-.265289.000004-.53057.09503-.71875.283203-.188175.18818-.281247.453461-.28125.71875-.000004.265289.09306.530585.28125.71875l3 3 .78125.75.6875-.8125 7-8.0000002c.248246-.2702537.256685-.6532066.11914-.9843718s-.421074-.6105427-.757812-.6738282z" fill="#fff" transform="translate(-24.610184 -4.610448)"/></svg>

<?xml version="1.0" encoding="UTF-8" standalone="no"?>
<svg
   xmlns:dc="http://purl.org/dc/elements/1.1/"
   xmlns:cc="http://creativecommons.org/ns#"
   xmlns:rdf="http://www.w3.org/1999/02/22-rdf-syntax-ns#"
   xmlns:svg="http://www.w3.org/2000/svg"
   xmlns="http://www.w3.org/2000/svg"
   xmlns:sodipodi="http://sodipodi.sourceforge.net/DTD/sodipodi-0.dtd"
   xmlns:inkscape="http://www.inkscape.org/namespaces/inkscape"
   height="16"
   width="16"
   version="1.1"
   id="svg6"
   sodipodi:docname="package-installed-updated.svg"
   inkscape:version="0.92.4 (5da689c313, 2019-01-14)">
  <metadata
     id="metadata12">
    <rdf:RDF>
      <cc:Work
         rdf:about="">
        <dc:format>image/svg+xml</dc:format>
        <dc:type
           rdf:resource="http://purl.org/dc/dcmitype/StillImage" />
      </cc:Work>
    </rdf:RDF>
  </metadata>
  <defs
     id="defs10">
    <filter
       height="1.019945"
       y="-0.0099725248"
       width="1.0301245"
       x="-0.015062248"
       id="filter10952"
       style="color-interpolation-filters:sRGB"
       inkscape:collect="always">
      <feGaussianBlur
         id="feGaussianBlur10954"
         stdDeviation="0.09265347"
         inkscape:collect="always" />
    </filter>
    <linearGradient
       id="linearGradient10935">
      <stop
         style="stop-color:#319741;stop-opacity:1"
         offset="0"
         id="stop10931" />
      <stop
         style="stop-color:#0e8420;stop-opacity:1"
         offset="1"
         id="stop10933" />
    </linearGradient>
    <filter
       inkscape:collect="always"
       style="color-interpolation-filters:sRGB"
       id="filter850"
       x="-0.011260506"
       width="1.022521"
       y="-0.012843448"
       height="1.0256869">
      <feGaussianBlur
         inkscape:collect="always"
         stdDeviation="0.056106651"
         id="feGaussianBlur852" />
    </filter>
  </defs>
  <sodipodi:namedview
     pagecolor="#ffffff"
     bordercolor="#808080"
     borderopacity="1"
     objecttolerance="10"
     gridtolerance="10"
     guidetolerance="10"
     inkscape:pageopacity="0"
     inkscape:pageshadow="2"
     inkscape:window-width="1920"
     inkscape:window-height="1016"
     id="namedview8"
     showgrid="false"
     inkscape:zoom="52.4375"
     inkscape:cx="8"
     inkscape:cy="8"
     inkscape:window-x="0"
     inkscape:window-y="27"
     inkscape:window-maximized="1"
     inkscape:current-layer="svg6" />
  <path
     d="M 5.3261719,0 C 3.6485819,0.0195 2.4196756,-0.04015813 1.4160156,0.51367188 0.91418565,0.79053187 0.51838814,1.25887 0.29882812,1.84375 0.07926812,2.42863 0,3.12319 0,4 v 8 c 0,0.87681 0.07924813,1.57137 0.29882812,2.15625 0.21956002,0.58488 0.61535753,1.053218 1.11718748,1.330078 1.00366,0.55376 2.2325663,0.494242 3.9101563,0.513672 h 0.00391 5.3398439 0.0039 c 1.67759,-0.0195 2.904543,0.04016 3.908203,-0.513672 0.50183,-0.27686 0.897628,-0.745198 1.117188,-1.330078 C 15.919201,13.57137 16,12.87681 16,12 V 4 C 16,3.12319 15.920752,2.42864 15.701172,1.84375 15.481622,1.25887 15.085814,0.79055187 14.583984,0.51367188 13.580324,-0.04011812 12.351428,0.01936 10.673828,0 h -0.0039 -2.0039064 -3.3359375 z"
     id="path4"
     style="fill:#1c8b2d;fill-opacity:1"
     inkscape:connector-curvature="0"
     sodipodi:nodetypes="ccsssccccccccssccccccc" />
  <path
     style="fill:#ffffff;fill-opacity:1;opacity:0.3"
     d="M 5.3261719 0 C 3.6485819 0.0195 2.4196756 -0.040158135 1.4160156 0.51367188 C 0.91418568 0.79053187 0.51838815 1.25887 0.29882812 1.84375 C 0.079268125 2.42863 -3.7007434e-17 3.12319 0 4 L 0 4.5 C -3.7007434e-17 3.62319 0.079268125 2.92863 0.29882812 2.34375 C 0.51838815 1.75887 0.91418568 1.2905319 1.4160156 1.0136719 C 2.4196756 0.45984185 3.6485819 0.5195 5.3261719 0.5 L 5.3300781 0.5 L 8.6660156 0.5 L 10.669922 0.5 L 10.673828 0.5 C 12.351428 0.51936 13.580324 0.45988185 14.583984 1.0136719 C 15.085814 1.2905519 15.481622 1.75887 15.701172 2.34375 C 15.920752 2.92864 16 3.62319 16 4.5 L 16 4 C 16 3.12319 15.920752 2.42864 15.701172 1.84375 C 15.481622 1.25887 15.085814 0.79055186 14.583984 0.51367188 C 13.580324 -0.040118125 12.351428 0.01936 10.673828 0 L 10.669922 0 L 8.6660156 0 L 5.3300781 0 L 5.3261719 0 z "
     id="path852" />
  <path
     id="path857"
     d="m 10.673828,16 c 1.67759,-0.0195 2.906496,0.04016 3.910156,-0.513672 0.50183,-0.27686 0.897628,-0.745198 1.117188,-1.330078 C 15.920732,13.57137 16,12.87681 16,12 v -0.5 c 0,0.87681 -0.07927,1.57137 -0.298828,2.15625 -0.21956,0.58488 -0.615358,1.053218 -1.117188,1.330078 C 13.580324,15.540158 12.351418,15.4805 10.673828,15.5 H 10.669922 7.3339844 5.330078 5.326172 C 3.648572,15.48064 2.419676,15.540118 1.416016,14.986328 0.914186,14.709448 0.518378,14.24113 0.298828,13.65625 0.079248,13.07136 0,12.37681 0,11.5 V 12 c 0,0.87681 0.079248,1.57136 0.298828,2.15625 0.21955,0.58488 0.615358,1.053198 1.117188,1.330078 C 2.419676,16.040118 3.648572,15.98064 5.326172,16 h 0.00391 2.0039064 3.3359376 z"
     style="opacity:0.2;fill:#000000;fill-opacity:1"
     inkscape:connector-curvature="0" />
  <g
     transform="translate(-24.610184,-4.510652)"
     id="g844"
     style="fill:#000000;fill-opacity:0.09803922;filter:url(#filter850)">
    <path
       inkscape:connector-curvature="0"
       id="path842"
       d="m 37.742386,7.3819518 c -0.09621,-0.018085 -0.196119,-0.019116 -0.298828,0.00195 -0.21888,0.0473 -0.42059,0.17053 -0.5625,0.34375 l -6.28125,7.1875002 -2.25,-2.25 c -0.188165,-0.18819 -0.453462,-0.283207 -0.71875,-0.283203 -0.265289,4e-6 -0.53057,0.09503 -0.71875,0.283203 -0.188175,0.18818 -0.281247,0.453461 -0.28125,0.71875 -4e-6,0.265289 0.09306,0.530585 0.28125,0.71875 l 3,3 0.78125,0.75 0.6875,-0.8125 7,-8.0000002 C 38.629304,8.7698981 38.637743,8.3869452 38.500198,8.05578 38.362653,7.7246148 38.079124,7.4452373 37.742386,7.3819518 Z"
       style="fill:#000000;fill-opacity:0.09803922" />
  </g>
  <g
     id="g837"
     transform="translate(-24.610184,-4.6104476)">
    <path
       style="fill:#ffffff"
       d="m 37.742386,7.3819518 c -0.09621,-0.018085 -0.196119,-0.019116 -0.298828,0.00195 -0.21888,0.0473 -0.42059,0.17053 -0.5625,0.34375 l -6.28125,7.1875002 -2.25,-2.25 c -0.188165,-0.18819 -0.453462,-0.283207 -0.71875,-0.283203 -0.265289,4e-6 -0.53057,0.09503 -0.71875,0.283203 -0.188175,0.18818 -0.281247,0.453461 -0.28125,0.71875 -4e-6,0.265289 0.09306,0.530585 0.28125,0.71875 l 3,3 0.78125,0.75 0.6875,-0.8125 7,-8.0000002 C 38.629304,8.7698981 38.637743,8.3869452 38.500198,8.05578 38.362653,7.7246148 38.079124,7.4452373 37.742386,7.3819518 Z"
       id="path840"
       inkscape:connector-curvature="0" />
  </g>
</svg>
